X:4355
T:Polka
M:2/4
O:France
R:Polka
Z:Richard Robinson 
%%TUNEURL: http://www.leeds.ac.uk/music/Info/RRTuneBk/gettune/000006c6.html
%%ID:000006c6
K:D
d2|c2d2 A2B2|ABAG F2d2|c2d2 F2B2|A6::
FG|ABAG F2A2|G2F2 E2EF\
|1 GAGF E2B2|A2G2 F2:|2 GAGF E2F2|D6||
